X: 2
T: Simon Thoumire's
R: jig
M: 6/8
L: 1/8
K: Gmaj
GGG EDE|GA_B =Bde|ged ege|dBG ABA|
GGG EDE|GA_B =Bde|ged ege|dBA G3:|
|:ged e2g-|ged edg|edB BAG|ABG E2D|
GGG EDE|GA_B =Bde|ged ege|dBA G2z:|

